16x16/apps/kig.svg

<svg height="16" width="16" xmlns="http://www.w3.org/2000/svg"><rect fill="#d9974e" height="16" rx=".857" width="16"/><path d="m6.5 3a3.5 3.5 0 0 0 -3.5 3.5 3.5 3.5 0 0 0 3 3.461v3.039h7v-7h-3.04a3.5 3.5 0 0 0 -3.46-3zm0 .5a3 3 0 0 1 2.957 2.5h-3.457v3.455a3 3 0 0 1 -2.5-2.955 3 3 0 0 1 3-3zm0 3h3a3 3 0 0 1 -3 3zm3.5 0h2.5v6h-6v-2.5a3.5 3.5 0 0 0 3.5-3.5z" fill="#4d4d4d"/></svg>

<svg xmlns="http://www.w3.org/2000/svg" width="16" height="16" version="1"><rect fill="#d9974e" width="16" height="16" rx=".857" ry=".857"/><path fill="#4d4d4d" d="M6.5 3A3.5 3.5 0 0 0 3 6.5a3.5 3.5 0 0 0 3 3.461V13h7V6H9.96A3.5 3.5 0 0 0 6.5 3zm0 .5A3 3 0 0 1 9.457 6H6v3.455A3 3 0 0 1 3.5 6.5a3 3 0 0 1 3-3zm0 3h3a3 3 0 0 1-3 3v-3zm3.5 0h2.5v6h-6V10A3.5 3.5 0 0 0 10 6.5z"/></svg>
